!!!OTL: Die Antiphona: Media vita in morte sumus
!!!ARE: Europa, Mitteleuropa, Deutschland
!!!SCT: A0648
!!!YEM: Copyright 1995, estate of Helmut Schaffrath.
**kern
*ICvox
*Ivox
!! Mixed meters:  4/1; 6/1
*M6/1
*k[f#]
*e:
{1gn
1gn
1a
1b
=1
1ccn
1ccn
0b
0a
=2
*M4/1
1b
1ccn
1ddn
1a
=3
2gn
2e
1fn
0e}
=4
{1gn
1gn
1a
1b
=5
*M6/1
1ccn
1ccn
0b
0a
=6
*M4/1
1b
1ccn
1ddn
1a
=7
2gn
2e
1fn
0e}
=8
{0.r
1dn
=9
1e
1e
1gn
1fn
=10
*M6/1
0e
0dn
1cn
2r}
{2cn
=11
*M4/1
1gn
1gn
1a
1b
=12
*M6/1
1ccn
1ccn
0b
0a
=13
*M4/1
1b
1ccn
1ddn
1a
=14
2gn
2e
1fn
0e}
=15
{0a
1gn
1e
=16
1fn
1gn
0e
=17
0a
1gn
1e
=18
1fn
1gn
1e
1r}
=19
{1a
1gn
1a
1b
=20
0ccn
1.b
2a
=21
*M6/1
0gn
0fn
1e
1e
=22
*M4/1
0a
1gn
1fn
=23
[0e
0e]}
=24
{1a
1gn
1a
1b
=25
*M6/1
0ccn
0a
0gn
=26
*M4/1
1ccn
1b
1ccn
1a
=27
1gn
1fn
0e
=28
1dn
1a
1gn
1fn
=29
[0e
0e]}
==
!!!AGN: Romanze, Ballade, Lied, religioeses Lied
!! Joh. Walther 1524 No. 3.
!!!ONB: ESAC (Essen Associative Code) Database: ALTDEU
!!!AMT: irregular
!!!AIN: vox
!!!EED: Helmut Schaffrath
!!!EEV: 1.0
*-
